X: 33687
T: Ramnee Ceilidh
R: reel
M: 4/4
K: Gmajor
GEEG D2GA|BGcB ABGA|B2dB A2BA|G3A GEED|
GEEG D2GA|BGcB ABGA|B2dB A2BA|1 GEDE G3A:|2 GEDE GDEG||
B3D EGA2|ADEG AGEG|B3D EGA2|ABcB AGEG|
B3D EGA2|ADEG AGEG|B2dB A2BA|1 GEDE GDEG:|2 GEDE G3A||
K:Amaj
AFFA E2AB|cAdc BcAB|c2ec B2cB|A3B AFFE|
AFFA E2AB|cAdc BcAB|c2ec B2cB|1 AFEF A3B:|2 AFEF AEFA||
c3E FAB2|BEFA BAFA|c3E FAB2|Bcdc BAFA|
c3E FAB2|BEFA BAFA|c2ec B2cB|1 AFEF AEFA:|2 AFEF A3B||"LAST"AGEG .A2z2||

